X: 18817
T: Iitin Tiltu Polkka
R: polka
M: 2/4
K: Bminor
fb bf|ge eg|ff/g/ f/e/d/c/|dB B2|
fb bf|ge eg|ff/g/ f/e/d/c/|dB Bc||
dd dc/d/|ee ed/e/|ff/g/ f/e/d/c/|dB Bc|
dd dc/d/|ee ed/e/|ff/g/ f/e/d/c/|dB B2||
dB/d/ fd|cF FD/F/|FA ce|f/e/d/c/ B2|
dB/d/ fd|cF FD/F/|FA ce|f/e/d/c/ B2||

